X:144140
T:The 51st Highland Division
C:PM Donald MacLeod
H:The 51st (Highland) Division was an infantry division of the British Army that fought on the Western Front in France during the First World War from 1915 to 1918. The division was raised in 1908, upon the creation of the Territorial Force, as the Highland Division and later 51st (Highland) Division from 1915. Wikipedia.
H:This tune was written in 1941 after the 51st Highland Division was reformed. It had been broken up after the British government abandoned them in Sy Valery in France as a distraction for the evacuation at Dunkirk. Being made up of Scottish Highland regiments they were expendable of course. Donald MacLeod was captured along with almost the entire remainder of the Division but managed to escape while being marched a POW camp in Germany. He got back home and immediately re-enlisted, eventually to pipe the 51st over the Rhine while advancing on Berlin at the end of the war. Piping ahead of troops had been banned because of the terrible mortality rate of pipers in WWI. (thesession.org)
B: http://trillian.mit.edu/~jc/music/abc/mirror/corneymusers/51st_Highland_Division_1.abc
B: thesession.org
O:Kevin Fraser
Z:Kevin Fraser
Q:1/4=90
K:HP
M:4/4
L:1/8
R:March
U: R = ///
U: r = //
U: V = !accent!
V:M gstem=up stem=down name="Melody"
V:H gstem=up stem=down name="Harmony"
V:C gstem=up stem=down name="C-Harmony"
V:S gstem=up stem=down dyn=up stafflines=1 clef=perc middle=G name="Snare" sname="Snare"" sname="Snare"
V:B gstem=up stem=down clef=none dyn=up name="Bass"
V:T gstem=up stem=down clef=none dyn=up name="Tenor"
V:BB gstem=up stem=down name="Brass Bass" sname="ABCD-C" transpose=-1  octave=-1 clef=bass
V:BC gstem=up stem=down name="Brass Chord" sname="ABCD-D" transpose=-1
V:BD gstem=up stem=down name="Brass Chord 2" sname="ABCD-B" transpose=-1
V:P gstem=up stem=down name="Piano" octave=-1
I:MIDI=program 110
V:M gstem=up stem=down name="Melody"
%%MIDI program 109 #bagpipes
%%MIDI vol 100
%%landscape
%%score {M}
[V:M]{gef}e3/2c/2|{g}A2 {GdGe}A3/2B/2 {gcd}c{e}B {gcd}ce|{ag}a3/2g/2 {fg}fe {gfg}f2 {g}ef3/4g/2| {ag}a3/2g/2 {fg}fe {gfg}fa {AGAG}A3/2B/2|{GdG}cf {gef}e3/2c/2 {gBd}B2 {gef}e3/2c/2| !
[V:M]{g}A2 {GdGe}A3/2B/2 {gcd}c{e}B {gcd}ce|{ag}a3/2g/2 {fg}fe {gfg}f2 {g}ef3/4g/2|  {ag}a3/2g/2 {fg}fe {gfg}fa {cd}c{e}B |{gcd}c2{e}A2{GAG}A2|]  !
[V:M]{gcd}ce| {g}f2{GdG}fa{ef}e2{gcd}ce|{ag}a3/2g/2 {a}fe {gfg}f2 {g}e{g}f3/4g/2| {ag}a3/2g/2 {fg}fe {gfg}fa {AGAG}A3/2B/2|{GdG}cf {gef}e3/2c/2 {gBd}B2 {gef}e3/2c/2| !
[V:M]{g}A2 {GdGe}A3/2B/2 {gcd}c{e}B {gcd}ce|{ag}a3/2g/2 {fg}fe {gfg}f2 {g}ef3/4g/2|  {ag}a3/2g/2 {fg}fe {gfg}fa {cd}c{e}B |{gcd}c2{e}A2{GAG}A2|]  !
W:The 51st (Highland) Division was an infantry division of the British Army that fought on the Western Front in France during the 
W:First World War from 1915 to 1918. The division was raised in 1908, upon the creation of the Territorial Force, as 
W:the Highland Division and later 51st (Highland) Division from 1915. Wikipedia.
W:
W:This tune was written in 1941 after the 51st Highland Division was reformed. It had been broken up after the British government 
W:abandoned them in Sy Valery in France as a distraction for the evacuation at Dunkirk. Being made up of Scottish Highland 
W:regiments they were expendable of course. Donald MacLeod was captured along with almost the entire remainder of the Division 
W:but managed to escape while being marched a POW camp in Germany. He got back home and immediately re-enlisted, eventually to 
W:pipe the 51st over the Rhine while advancing on Berlin at the end of the war. Piping ahead of troops had been banned because of 
W:the terrible mortality rate of pipers in WWI. (thesession.org)
[V:S] c>A  [| "^9"(rc>!>!c)!>!A>"^5"(rc c)>A "^9"(rc>!>!c) !>!A>"^5"(rcc)>A {A}c2"^13"r(c2  | (3:2A)cA{A}c>A  (3:2AcA{A}c>A   c>!>!Ac/A/c/A !>!c2c>A  |  "^9"(rc>!>!c)!>!A>"^5"(rc c)>A "^9"(rc>!>!c)  !>!A>"^5"(rcc)>A {A}c2"^13"r(c2  | (3:2A)cA{A}c2   A{A}>cA>A       {A}c2(rc2 A2)c>A | $
[V:S]| "^9"(rc>!>!c)!>!A>"^5"(rc c)>A "^9"(rc>!>!c)  !>!A>"^5"(rcc)>A {A}c2"^13"r(c2  | (3:2A)cA{A}c>A  (3:2AcA {A}c>A  c>!>!Ac/A/c/A !>!c2c>A  |  "^9"(rc>!>!c)!>!A>"^5"(rc c)>A "^9"(rc>!>!c)  !>!A>"^5"(rcc)>A {A}c2"^13"r(c2  | A4) (rc4 c4) z2 |] $


